X: 591
T: Dudağımda Açan Gülüş
C: Erol Sayan
O: Turkey
F: http://compmusic.upf.edu/node/140
N: mahur--sarki--duyek--dudagimda_acan--erol_sayan
N: makam= mahur
N: form= sarki
N: usul= duyek = 8/4
M: 8/4
L: 1/16
K: C ^9/8f   
Q: 1/4=204
%%MIDI tuningsystem comma53
g2 d4 gf g4 b4  | c'2 c'4 b2 ag fe d4  | \
w:  ARANAĞME  |   | 
c'2 c'4 bc' d'2 c'2 b2 ag  | 
w:   | 
f2 g2 e2 g2 g8  | f2 a4 g2 e2 g4 f2  | \
w:   |   | 
z2 d2 c2 B2 d8  | c2 c2 AB c2 B2 A2 cB AG  | 
w:   |   | 
z2 F2 E2 F2 G8  | g2 d4 gf g4 b4  | c'2 c'4 b2 ag fe d4  | \
w:   |  ARANAĞME  |   | 
c'2 c'4 bc' d'2 c'2 b2 ag  | 
w:   | 
f2 g2 e2 g2 g8  | f2 a4 g2 e2 g4 f2  | \
w:   |   | 
z2 d2 c2 B2 d8  | c2 c2 AB c2 B2 A2 cB AG  | 
w:   |   | 
z2 F2 E2 F2 G8  | z4 g2 f2 a4 g4  | c'2 b4 a2 g8  | \
w:   |  Du da ğım da   |  a çan  gü lüş    | 
f2 a4 z2 g2 e4 z2  | z2 d2 e2 f2 d8  | 
w:  Se nin  be nim   |  i ki mi zin    | 
e4 e2 c2 e4 z2 d2  | f4 z2 d2 g8  | B2 d4 z2 c2 A4 z2  | \
w:  Saç la rı ma  dü  |  şen  gü müş    |  Be nim  se nin   | 
z2 F2 G2 A2 G8  | 
w:  i ki mi zin    | 
z4 g2 f2 a4 g4  | c'2 b4 a2 g8  | f2 a4 z2 g2 e4 z2  | \
w:  Du da ğım da   |  a çan  gü lüş    |  Se nin  be nim   | 
z2 d2 e2 f2 d8  | e4 e2 c2 e4 z2 d2  | 
w:  i ki mi zin    |  Saç la rı ma  dü  | 
f4 z2 d2 g8  | B2 d4 z2 c2 A4 z2  | z2 F2 G2 A2 G8  | \
w:  şen  gü müş    |  Be nim  se nin   |  i ki mi zin    | 
z2 D2 E2 F2 G2 A2 B4  | 
w:   | 
z2 G2 A2 B2 c2 d2 e4  | z2 d2 e2 f2 g2 a2 b2 a2  | \
w:   |   | 
g2 b6 g4 b4  | z2 b4 b2 b4 b4  | 
w:   |  İl mek_ il mek   | 
c'2 c'4 b2 a8  | c'2 c'6 a4 b4  | z2 f2 g2 e2 g8  | \
w:  dü ğüm  dü ğüm    |  Ha ya tım la   |  do ku du ğum    | 
f2 a4 g2 g4 e4  | d2 c4 B2 d8  | 
w:  Ne yim  *  var sa   |  ö vün dü ğüm    | 
c2 c4 z2 B2 A4 z2  | z2 F2 E2 F2 G8  | \
w:  Se nin  be nim   |  i ki mi zin    | 
f2 a4 g2 g4 e4  | d2 c4 B2 d8  | c2 c4 z2 B2 A4 z2  | 
w:  Ne yim  *  var sa   |  ö vün dü ğüm    |  Se nin  be nim   | 
z2 F2 E2 F2 G8  | g2 d4 gf g4 b4  | c'2 c'4 b2 ag fe d4  | \
w:  i ki mi zin    |  ARANAĞME  |   | 
c'2 c'4 bc' d'2 c'2 b2 ag  | 
w:   | 
f2 g2 e2 g2 g8  | f2 a4 g2 e2 g4 f2  | \
w:   |   | 
z2 d2 c2 B2 d8  | c2 c2 AB c2 B2 A2 cB AG  | 
w:   |   | 
z2 F2 E2 F2 G8  | g2 d4 gf g4 b4  | c'2 c'4 b2 ag fe d4  | \
w:   |  ARANAĞME  |   | 
c'2 c'4 bc' d'2 c'2 b2 ag  | 
w:   | 
f2 g2 e2 g2 g8  | f2 a4 g2 e2 g4 f2  | \
w:   |   | 
z2 d2 c2 B2 d8  | c2 c2 AB c2 B2 A2 cB AG  | 
w:   |   | 
z2 F2 E2 F2 G8  | g4 f4 g2 a6  | z2 c'2 b2 a2 g8  | \
w:   |  Sen siz  ge çen   |  gü ne  ya zık    | 
z4 f2 a2 g4 e4  | d4 e2 f2 d8  | 
w:  Yol_ u cun dan   |  gay rı  gö zük    | 
e4 e4 c2 e4 z2  | d4 f4 d2 g6  | B2 d4 z2 c2 A4 z2  | \
w:  Par mak ta ki   |  al tın  yü zük    |  Se nin  be nim   | 
z2 F2 G2 A2 G8  | g4 f4 g2 a6  | 
w:  i ki mi zin    |  Sen siz  ge çen   | 
z2 c'2 b2 a2 g8  | z4 f2 a2 g4 e4  | \
w:  gü ne  ya zık    |  Yol_ u cun dan   | 
d4 e2 f2 d8  | e4 e4 c2 e4 z2  | d4 f4 d2 g6  | 
w:  gay rı  gö zük    |  Par mak ta ki   |  al tın  yü zük    | 
B2 d4 z2 c2 A4 z2  | z2 F2 G2 A2 G8  | \
w:  Se nin  be nim   |  i ki mi zin    | 
z2 D2 E2 F2 G2 A2 B4  | z2 G2 A2 B2 c2 d2 e4  | 
w:   |   | 
z2 d2 e2 f2 g2 a2 b2 a2  | g2 b6 g4 b4  | \
w:   |   | 
z2 b4 b2 b4 b4  | c'2 c'4 b2 a8  | 
w:  İl mek_ il mek   |  dü ğüm  dü ğüm    | 
c'2 c'6 a4 b4  | z2 f2 g2 e2 g8  | f2 a4 g2 g4 e4  | \
w:  Ha ya tım la   |  do ku du ğum    |  Ne yim  *  var sa   | 
d2 c4 B2 d8  | c2 c4 z2 B2 A4 z2  | 
w:  ö vün dü ğüm    |  Se nin  be nim   | 
z2 F2 E2 F2 G8  | f2 a4 g2 g4 e4  | d2 c4 B2 d8  | \
w:  i ki mi zin    |  Ne yim  *  var sa   |  ö vün dü ğüm    | 
c2 c4 z2 B2 A4 z2  | z2 F2 E2 F2 G8  | 
w:  Se nin  be nim   |  i ki mi zin    | 
|


